src/assets/alco-bottle-icon.svg

<svg width="26" height="26" class="iconPrimary" viewBox="0 0 26 26" fill="none" xmlns="http://www.w3.org/2000/svg">
<path d="M14.2185 3.25H11.781C11.6575 3.25004 11.5357 3.22193 11.4247 3.16781C11.3137 3.11369 11.2164 3.03497 11.1404 2.93765C11.0644 2.84032 11.0116 2.72695 10.9859 2.60614C10.9603 2.48534 10.9626 2.36028 10.9925 2.24047L11.1188 1.7355C11.1848 1.47181 11.337 1.23773 11.5513 1.07049C11.7656 0.903248 12.0296 0.812439 12.3014 0.8125L13.6981 0.8125C13.9699 0.812439 14.234 0.903248 14.4483 1.07049C14.6625 1.23773 14.8148 1.47181 14.8807 1.7355L15.0071 2.24047C15.037 2.36028 15.0393 2.48534 15.0136 2.60614C14.988 2.72695 14.9352 2.84032 14.8591 2.93765C14.7831 3.03497 14.6859 3.11369 14.5749 3.16781C14.4639 3.22193 14.342 3.25004 14.2185 3.25ZM12.3014 1.625C12.2108 1.62493 12.1226 1.65522 12.0512 1.71102C11.9797 1.76682 11.9289 1.84494 11.907 1.93294L11.781 2.4375H14.2198L14.0926 1.93294C14.0707 1.84494 14.0199 1.76682 13.9484 1.71102C13.8769 1.65522 13.7888 1.62493 13.6981 1.625H12.3014Z" fill="#EFEFEF"/>
<path fill-rule="evenodd" clip-rule="evenodd" d="M16.25 11.3752C16.2267 11.3519 16.2047 11.3302 16.1839 11.3096C15.8578 10.987 15.8316 10.961 15.6406 9.81522C15.5595 9.32857 15.4498 9.14996 15.3452 8.12523H10.6186C10.4956 9.28167 10.383 9.55177 10.3594 9.81522L10.3582 9.82859C10.3042 10.4309 10.2658 10.8594 9.75 11.3752C9.55197 11.5733 9.37151 11.6805 9.20094 11.7819C8.96561 11.9217 8.7491 12.0504 8.53125 12.3908C8.1555 12.9781 8.12613 13.5218 8.125 14.219V15.4377H11.0098C11.4043 15.0512 11.9031 14.7877 12.4452 14.6799C12.9968 14.5701 13.5686 14.6265 14.0883 14.8417C14.4259 14.9816 14.7317 15.1845 14.9902 15.4377H17.875V14.219C17.8739 13.5218 17.8445 12.9781 17.4688 12.3908C17.2509 12.0504 17.0344 11.9217 16.7991 11.7819C16.6285 11.6805 16.448 11.5733 16.25 11.3752ZM10.8375 6.09398H15.1452C15.1449 6.09094 15.1446 6.0879 15.1443 6.08486C15.0791 5.40867 15.0323 4.11125 15.0215 4.06272C15.0014 3.97251 14.9512 3.89183 14.8791 3.834C14.8071 3.77617 14.7174 3.74464 14.625 3.74463H11.375C11.2826 3.74464 11.1929 3.77617 11.1209 3.834C11.0488 3.89183 10.9986 3.97251 10.9785 4.06272C10.9683 4.10862 10.9122 5.41349 10.8375 6.09398ZM8.125 23.1565V19.5002H11.0098C11.1353 19.6232 11.2726 19.7349 11.4201 19.8335C11.8877 20.1459 12.4376 20.3127 13 20.3127C13.7445 20.3127 14.459 20.0208 14.9902 19.5002H17.875V23.1565C17.8744 23.695 17.6601 24.2113 17.2793 24.5921C16.8986 24.9729 16.3823 25.1871 15.8438 25.1877H10.1562C9.61773 25.1871 9.10144 24.9729 8.72065 24.5921C8.33986 24.2113 8.12565 23.695 8.125 23.1565Z" fill="currentColor"/>
<path fill-rule="evenodd" clip-rule="evenodd" d="M13 14.9297C12.3081 14.9297 11.6813 15.2061 11.223 15.6551C11.1661 15.7109 11.0895 15.7422 11.0098 15.7422H8.73438V17.4688C8.73438 17.637 8.59796 17.7734 8.42969 17.7734C8.26141 17.7734 8.125 17.637 8.125 17.4688V15.4375C8.125 15.2692 8.26141 15.1328 8.42969 15.1328H10.889C11.4472 14.6281 12.1879 14.3203 13 14.3203C13.8121 14.3203 14.5528 14.6281 15.111 15.1328H17.5703C17.7386 15.1328 17.875 15.2692 17.875 15.4375C17.875 15.6058 17.7386 15.7422 17.5703 15.7422H14.9902C14.9105 15.7422 14.8339 15.7109 14.777 15.6551C14.3187 15.2061 13.6919 14.9297 13 14.9297ZM17.5703 17.1641C17.7386 17.1641 17.875 17.3005 17.875 17.4688V19.5C17.875 19.6683 17.7386 19.8047 17.5703 19.8047H15.111C14.5528 20.3094 13.8121 20.6172 13 20.6172C12.1879 20.6172 11.4472 20.3094 10.889 19.8047H8.42969C8.26141 19.8047 8.125 19.6683 8.125 19.5C8.125 19.3317 8.26141 19.1953 8.42969 19.1953H11.0098C11.0895 19.1953 11.1661 19.2266 11.223 19.2824C11.6813 19.7314 12.3081 20.0078 13 20.0078C13.6919 20.0078 14.3187 19.7314 14.777 19.2824C14.8339 19.2266 14.9105 19.1953 14.9902 19.1953H17.2656V17.4688C17.2656 17.3005 17.402 17.1641 17.5703 17.1641Z" fill="#EFEFEF"/>
</svg>

<svg xmlns="http://www.w3.org/2000/svg" width="26" height="26" fill="none" class="iconPrimary" viewBox="0 0 26 26">
    <path fill="#EFEFEF" d="M14.219 3.25H11.78a.812.812 0 0 1-.789-1.01l.127-.505A1.219 1.219 0 0 1 12.3.813h1.397a1.219 1.219 0 0 1 1.183.923l.126.505a.812.812 0 0 1-.788 1.01ZM12.3 1.625a.406.406 0 0 0-.394.308l-.126.504h2.439l-.127-.504a.406.406 0 0 0-.395-.308h-1.397Z"/>
    <path fill="currentColor" fill-rule="evenodd" d="m16.25 11.375-.066-.065c-.326-.323-.352-.349-.543-1.495-.082-.486-.191-.665-.296-1.69H10.62c-.123 1.157-.236 1.427-.26 1.69v.014c-.055.602-.093 1.03-.609 1.546-.198.198-.378.306-.55.407-.234.14-.45.268-.669.609-.376.587-.405 1.13-.406 1.828v1.219h2.885a2.844 2.844 0 0 1 3.98 0h2.885v-1.219c-.001-.697-.03-1.24-.406-1.828-.218-.34-.435-.47-.67-.61-.17-.1-.351-.208-.549-.406Zm-5.412-5.281h4.307v-.01c-.066-.675-.113-1.973-.123-2.021a.406.406 0 0 0-.397-.318h-3.25a.406.406 0 0 0-.396.318c-.01.046-.067 1.35-.141 2.031ZM8.125 23.157V19.5h2.885a2.845 2.845 0 0 0 3.98 0h2.885v3.657a2.034 2.034 0 0 1-2.031 2.03h-5.688a2.033 2.033 0 0 1-2.031-2.03Z" clip-rule="evenodd"/>
    <path fill="#EFEFEF" fill-rule="evenodd" d="M13 14.93a2.53 2.53 0 0 0-1.777.725.305.305 0 0 1-.213.087H8.734v1.727a.305.305 0 0 1-.609 0v-2.032c0-.168.136-.304.305-.304h2.459A3.138 3.138 0 0 1 13 14.32c.812 0 1.553.308 2.111.813h2.46a.305.305 0 1 1 0 .61h-2.58a.305.305 0 0 1-.214-.088A2.53 2.53 0 0 0 13 14.93Zm4.57 2.234c.169 0 .305.136.305.305V19.5a.305.305 0 0 1-.305.305h-2.459a3.138 3.138 0 0 1-2.111.812 3.138 3.138 0 0 1-2.111-.812h-2.46a.305.305 0 1 1 0-.61h2.58c.08 0 .157.032.214.087a2.53 2.53 0 0 0 1.777.726 2.53 2.53 0 0 0 1.777-.726.305.305 0 0 1 .213-.087h2.276V17.47c0-.169.136-.305.304-.305Z" clip-rule="evenodd"/>
</svg>
